lib/assets/images/appbar_settings.svg

<svg width="24" height="24" viewBox="0 0 24 24" fill="none" xmlns="http://www.w3.org/2000/svg">
<path fill-rule="evenodd" clip-rule="evenodd" d="M9.2255 4.53538C9.34727 3.65808 10.0973 3.00493 10.9831 3.00493H12.8965C13.7715 3.00493 14.5159 3.64274 14.65 4.50737C14.8234 5.62548 16.0152 6.2968 17.078 5.86529C17.8986 5.5321 18.8393 5.8551 19.2822 6.62215L20.2389 8.27927C20.6764 9.03701 20.4962 10.0006 19.8145 10.549C18.9329 11.2583 18.9474 12.626 19.8525 13.3307C20.5514 13.8748 20.742 14.851 20.2991 15.618L19.3424 17.2751C18.9049 18.0329 17.9804 18.3586 17.1645 18.0424C16.0551 17.6125 14.8323 18.3184 14.65 19.4942C14.5159 20.3588 13.7715 20.9966 12.8965 20.9966H10.9831C10.0973 20.9966 9.34727 20.3435 9.2255 19.4662C9.0678 18.33 7.89052 17.6336 6.83549 18.0424C6.01965 18.3586 5.09511 18.0329 4.65763 17.2751L3.70089 15.618C3.25803 14.851 3.44864 13.8748 4.14753 13.3307C5.05262 12.626 5.06713 11.2583 4.18553 10.549C3.50379 10.0006 3.32362 9.03701 3.7611 8.27927L4.71784 6.62215C5.16069 5.8551 6.10137 5.5321 6.92203 5.86529C7.93977 6.27851 9.07449 5.62338 9.2255 4.53538ZM12 16C14.2091 16 16 14.2091 16 12C16 9.79086 14.2091 8 12 8C9.79086 8 8 9.79086 8 12C8 14.2091 9.79086 16 12 16Z" fill="#7B7E86"/>
</svg>

<svg width="24" height="24" fill="none" xmlns="http://www.w3.org/2000/svg"><path fill-rule="evenodd" clip-rule="evenodd" d="M9.226 4.535a1.774 1.774 0 0 1 1.757-1.53h1.913c.875 0 1.62.638 1.754 1.502.173 1.118 1.365 1.79 2.428 1.358a1.774 1.774 0 0 1 2.204.757l.957 1.657a1.774 1.774 0 0 1-.425 2.27c-.881.71-.867 2.077.038 2.782.7.544.89 1.52.447 2.287l-.957 1.657a1.774 1.774 0 0 1-2.177.767 1.863 1.863 0 0 0-2.515 1.452 1.774 1.774 0 0 1-1.754 1.503h-1.913a1.774 1.774 0 0 1-1.758-1.53c-.157-1.137-1.334-1.833-2.39-1.425a1.774 1.774 0 0 1-2.177-.767L3.7 15.618a1.774 1.774 0 0 1 .447-2.287c.905-.705.92-2.073.038-2.782a1.774 1.774 0 0 1-.425-2.27l.957-1.657a1.774 1.774 0 0 1 2.204-.757 1.685 1.685 0 0 0 2.304-1.33zM12 16a4 4 0 1 0 0-8 4 4 0 0 0 0 8z" fill="#7B7E86"/></svg>
